X: 10366
T: Donal Murphy's
R: polka
M: 2/4
K: Amajor
|:AE AB|c2 c>B|AE AB|c2 cc/e/|
fe cA|B2 Bc/e/|fe cB|1 AB cB:|2 AB ce||
|:~a3 f|~g3 e|~f2 af|e2 ec/e/|
fe cA|B2 Bc/e/|fe cB|1 AB ce:|2 AB cB||

